!!!!SEGMENT: Wil2052-Patefacte_sunt.krn
!!!id: Wil2052
!!!AGN: Motet
!!!SCT: Zenck (1950)
!!!voices: 4
!!!COM: Adrian Willaert
!!!OTL: Patefacte sunt
**kern	**kern	**kern	**kern
*part4	*part3	*part2	*part1
*staff4	*staff3	*staff2	*staff1
*I"Bassus	*I"Tenor	*I"Altus	*I"Superius
*I'B	*I'T	*I'A	*I'S
*clefF4	*clefGv2	*clefGv2	*clefG2
*k[b-]	*k[b-]	*k[b-]	*k[b-]
*F:	*F:	*F:	*F:
*M2/1	*M2/1	*M2/1	*M2/1
*met(C|)	*met(C|)	*met(C|)	*met(C|)
!!section: Prima pars: Patefacte sunt
!!!OMD: Prima pars: Patefacte sunt
=1	=1	=1	=1
0r	0r	0r	1.f
.	.	.	2f
=2	=2	=2	=2
0r	0r	0r	1a
.	.	.	1b-y
=3	=3	=3	=3
0r	0r	1.c	1g
.	.	.	1cc
.	.	2c	.
=4	=4	=4	=4
0r	0r	1e	2cc
.	.	.	2b-y
.	.	1f	1a
=5	=5	=5	=5
0r	0r	1c	2g
.	.	.	2cc
.	.	1f	2cc
.	.	.	[2dd
=6	=6	=6	=6
0r	0r	2f	4dd]
.	.	.	4cc
.	.	2e	1cc
.	.	1d	.
.	.	.	2b-y
=7	=7	=7	=7
0r	1.F	1c	2cc
.	.	.	1a
.	.	[1c	.
.	2F	.	4g
.	.	.	4f
=8	=8	=8	=8
0r	1A	2c]	2.e
.	.	2c	.
.	.	.	4f
.	1B-y	2d	2g
.	.	2d	[2f
=9	=9	=9	=9
1.C	1G	1.c	2f]
.	.	.	4e
.	.	.	4d
.	1c	.	2.e
2C	.	4B-y	.
.	.	4A	4f
=10	=10	=10	=10
1E	2c	1G	1g
.	2B-y	.	.
1F	1A	1r	1c
=11	=11	=11	=11
1C	2G	0r	0r
.	2c	.	.
1F	2c	.	.
.	[2d	.	.
=12	=12	=12	=12
2F	4d]	0r	0r
.	4c	.	.
2E	1c	.	.
1D	.	.	.
.	2Bni	.	.
=13	=13	=13	=13
1C	0c	2r	1r
.	.	2G	.
[1C	.	2G	[1e
.	.	[2A	.
=14	=14	=14	=14
2C]	1r	4A]	2e]
.	.	4G	.
2C	.	1G	2e
2D	1A	.	2f
2D	.	2F	2d
=15	=15	=15	=15
1C	1.c	0G	0e
1C	.	.	.
.	2c	.	.
=16	=16	=16	=16
1.G	2.B-y	1r	1r
.	4A	.	.
.	4B-y	2r	1d
.	4c	.	.
2G	[2d	2B-y	.
=17	=17	=17	=17
2.F	4d]	1A	1.f
.	4c	.	.
.	1c	.	.
4E	.	.	.
2D	.	1F	.
2D	2Bni	.	2f
=18	=18	=18	=18
0C	[0c	1.G	2.e
.	.	.	4d
.	.	.	4e
.	.	.	4f
.	.	4F	[2g
.	.	4E	.
=19	=19	=19	=19
1r	0c]	2F	4g]
.	.	.	4f
.	.	2A	1f
1C	.	2G	.
.	.	2G	2e
=20	=20	=20	=20
1F	1r	1A	2f
.	.	.	1a
[1A	1F	[1c	.
.	.	.	4g
.	.	.	4f
=21	=21	=21	=21
2A]	1c	2c]	2e
2A	.	4B-y	2f
.	.	4A	.
1G	[1d	2B-y	1g
.	.	2B-y	.
=22	=22	=22	=22
1D	2d]	2.A	1f
.	2d	.	.
.	.	8GL	.
.	.	8FJ	.
2E	1c	2G	1r
[2F	.	2A	.
=23	=23	=23	=23
4F]	1A	1F	0r
4E	.	.	.
4D	.	.	.
4C	.	.	.
2D	2B-y	1r	.
2E	[2c	.	.
=24	=24	=24	=24
2.F	4c]	0r	0r
.	4B-y	.	.
.	4A	.	.
4E	4G	.	.
2F	2A	.	.
2G	2B-y	.	.
=25	=25	=25	=25
2.A	2.c	1F	0r
4G	4B-y	.	.
2F	2A	1c	.
2E	2G	.	.
=26	=26	=26	=26
2.D	2B-y	1.d	0r
.	1A	.	.
4C	.	.	.
1BB-y	.	.	.
.	2G	2d	.
=27	=27	=27	=27
0AA	2.A	1c	1r
.	8GL	.	.
.	8FJ	.	.
.	2E	1A	1c
.	[2F	.	.
=28	=28	=28	=28
0r	2F]	2B-y	1g
.	2E	2.c	.
.	1F	.	[1a
.	.	4B-y	.
.	.	4A	.
.	.	4G	.
=29	=29	=29	=29
1r	2r	2F	2a]
.	2A	1f	2a
2r	2B-y	.	1g
2C	[2c	2e	.
=30	=30	=30	=30
2.F	4c]	2f	1a
.	4B-y	.	.
.	4A	2c	.
4E	4G	.	.
2D	2F	2d	2b-y
2C	2G	2e	[2cc
=31	=31	=31	=31
1F	1A	2c	4cc]
.	.	.	4b-y
.	.	1f	4a
.	.	.	4g
1D	1F	.	2a
.	.	4e	2b-y
.	.	4d	.
=32	=32	=32	=32
1C	1G	0e	2.cc
.	.	.	4b-y
1r	1c	.	2a
.	.	.	2g
=33	=33	=33	=33
2r	2.d	1f	2b-y
2F	.	.	1a
.	4c	.	.
2G	1B-y	2.d	.
2G	.	.	2g
.	.	4e	.
=34	=34	=34	=34
2F	1A	[0f	1a
1F	.	.	.
.	1c	.	2r
2F	.	.	2a
=35	=35	=35	=35
2D	2d	0f]	2a
2BB-y	2d	.	2b-y
1F	2c	.	1a
.	[2c	.	.
=36	=36	=36	=36
1C	2c]	2r	2r
.	2c	2e	2g
1r	2A	2e	2a
.	2F	2f	2a
=37	=37	=37	=37
0r	2.c	1e	2g
.	.	.	1g
.	8B-yL	.	.
.	8AJ	.	.
.	2B-y	1r	.
.	[2c	.	2g
=38	=38	=38	=38
0r	2c]	0r	2e
.	4B-y	.	2c
.	4A	.	.
.	2G	.	2.g
.	2c	.	.
.	.	.	8fL
.	.	.	8eJ
=39	=39	=39	=39
0r	2d	0r	2f
.	2.e	.	1g
.	4d	.	.
.	[2c	.	4f
.	.	.	4e
=40	=40	=40	=40
0r	2c]	0r	2d
.	2Bni	.	2g
.	[1c	.	2g
.	.	.	[2a
=41	=41	=41	=41
1F	2c]	0r	4a]
.	.	.	4g
.	1d	.	1f
2G	.	.	.
2G	4c	.	2e
.	4B-y	.	.
=42	=42	=42	=42
2F	1A	1r	[0f
1F	.	.	.
.	2r	1c	.
2F	2A	.	.
=43	=43	=43	=43
2D	2A	2d	0f]
2BB-y	2B-y	2d	.
2.F	1A	2c	.
.	.	[2c	.
8EL	.	.	.
8DJ	.	.	.
=44	=44	=44	=44
2E	0r	2c]	0r
1F	.	2c	.
.	.	2A	.
4E	.	2F	.
4D	.	.	.
=45	=45	=45	=45
2C	0r	2.c	0r
2F	.	.	.
.	.	8B-yL	.
.	.	8AJ	.
2G	.	2B-y	.
[2A	.	[2c	.
=46	=46	=46	=46
4A]	0r	2c]	1r
4G	.	.	.
1F	.	4B-y	.
.	.	4A	.
.	.	2G	1g
2E	.	[2c	.
=47	=47	=47	=47
1F	0c	2c]	2a
.	.	2f	2a
1C	.	2e	1g
.	.	[2c	.
=48	=48	=48	=48
2G	2d	2c]	2r
2G	2d	2B-y	1g
1C	1c	4c	.
.	.	4d	.
.	.	4e	2g
.	.	4f	.
=49	=49	=49	=49
1.C	2r	2g	2e
.	1c	1e	2c
.	.	.	2.g
2C	2c	2e	.
.	.	.	8fL
.	.	.	8eJ
=50	=50	=50	=50
2D	2A	2d	2f
2GG	2B-y	2d	1g
4C	1c	2e	.
4D	.	.	.
4E	.	[2g	4f
4F	.	.	4e
=51	=51	=51	=51
2G	2B-y	4g]	2d
.	.	4f	.
1C	2.c	4e	2g
.	.	4d	.
.	.	2e	2g
.	4B-y	.	.
[2F	4A	[2c	[2a
.	4G	.	.
=52	=52	=52	=52
2F]	2A	2c]	4a]
.	.	.	4g
2BB-y	2B-y	2d	1f
1C	1G	1c	.
.	.	.	2e
=	=	=	=
00FF	00F	00c	00f
=||	=||	=||	=||
*M2/1	*M2/1	*M2/1	*M2/1
*met(C|)	*met(C|)	*met(C|)	*met(C|)
!!section: Secunda pars: Mortem enim
!!!OMD: Secunda pars: Mortem enim
0F	0A	0r	0r
=53	=53	=53	=53
1D	1B-y	1r	0r
1E	1G	[1c	.
=54	=54	=54	=54
1F	1A	1c]	0f
1BB-y	1r	1d	.
=55	=55	=55	=55
0r	1r	1B-y	1g
.	[1A	[1c	1e
=56	=56	=56	=56
1F	1A]	1c]	0f
1D	1B-y	1r	.
=57	=57	=57	=57
1E	1G	0r	0r
1F	2A	.	.
.	[2c	.	.
=58	=58	=58	=58
1F	2c]	0f	0a
.	2c	.	.
1D	[1d	.	.
=59	=59	=59	=59
1G	2d]	1d	1b-y
.	2B-y	.	.
1C	1c	1e	1g
=60	=60	=60	=60
0r	2.F	1f	2a
.	.	.	2cc
.	4G	.	.
.	2A	2r	2cc
.	[2B-y	2f	[2dd
=61	=61	=61	=61
1r	2B-]	2f	2dd]
.	4A	2g	2b-y
.	4G	.	.
2r	2.A	2e	2.cc
2F	.	[2f	.
.	4B-y	.	4b-y
=62	=62	=62	=62
2F	2c	4f]	4a
.	.	4e	4g
1G	2B-y	4d	1b-y
.	.	4c	.
.	1G	2d	.
2E	.	2e	4a
.	.	.	4g
=63	=63	=63	=63
1F	1r	2c	1a
.	.	1f	.
2C	2r	.	1g
2C	2c	2e	.
=64	=64	=64	=64
2F	2c	1f	1a
2F	2d	.	.
2G	2B-y	1r	2b-y
2E	[2c	.	2g
=65	=65	=65	=65
2.F	4c]	1c	1a
.	4B-y	.	.
.	4A	.	.
4E	4G	.	.
2F	2A	2d	1r
2G	2B-y	2d	.
=66	=66	=66	=66
1C	2G	1e	0r
.	1c	.	.
1D	.	1f	.
.	2Bni	.	.
=67	=67	=67	=67
2.C	0c	1e	2r
.	.	.	2g
4D	.	.	.
2E	.	2r	2g
2F	.	2A	2a
=68	=68	=68	=68
2D	0r	2B-y	2f
2.E-X	.	2B-y	2.g
.	.	1c	.
4D	.	.	4f
4C	.	.	4e
4BB-y	.	.	4d
=69	=69	=69	=69
2C	2r	1A	2e
2D	2F	.	2f
1GG	2G	1B-y	2d
.	2G	.	[2g
=70	=70	=70	=70
2r	1A	2c	2g]
2D	.	2.d	2f#i
2G	1B-y	.	1g
.	.	4c	.
2G	.	4d	.
.	.	4B-y	.
=71	=71	=71	=71
2.F	2.A	2c	2r
.	.	2.f	2c
4E	4G	.	.
2D	2A	.	2d
.	.	4e	.
4C	2B-y	[2d	2d
4BB-y	.	.	.
=72	=72	=72	=72
1C	2G	4d]	1e
.	.	4c	.
.	1A	1c	.
1D	.	.	1f
.	4G	2Bni	.
.	4F	.	.
=73	=73	=73	=73
0C	1G	1c	0e
.	2r	2r	.
.	2G	2c	.
=74	=74	=74	=74
1r	2d	2B-y	2r
.	2d	2B-y	2f
1C	1e	2G	2g
.	.	[2c	2g
=75	=75	=75	=75
2F	2c	4c]	1a
.	.	4F	.
2F	1d	1f	.
1G	.	.	1b-y
.	4c	2e	.
.	4B-y	.	.
=76	=76	=76	=76
2F	2d	1f	1a
1F	2c	.	.
.	2A	2r	1f
4E	[2B-y	2F	.
4D	.	.	.
=77	=77	=77	=77
2E	2B-]	2c	0r
2F	2A	2c	.
2BB-y	2B-y	1d	.
[2F	[2A	.	.
=78	=78	=78	=78
4F]	4A]	1c	0r
4G	4B-y	.	.
2A	4c	.	.
.	4A	.	.
2G	2B-y	1r	.
[2F	[2A	.	.
=79	=79	=79	=79
4F]	4A]	2r	0r
4E	4G	.	.
2E	1c	2G	.
2F	.	2d	.
2G	2Bni	2d	.
=80	=80	=80	=80
0C	1c	1e	2r
.	.	.	2g
.	1r	2c	2g
.	.	[2c	2g
=81	=81	=81	=81
0r	0r	2c]	1a
.	.	4B-y	.
.	.	4A	.
.	.	2B-y	2g
.	.	2c	[2g
=82	=82	=82	=82
0r	0r	2G	2g]
.	.	2c	4f
.	.	.	4e
.	.	2d	2f
.	.	[2e	2g
=83	=83	=83	=83
0r	0r	4e]	2c
.	.	4d	.
.	.	4e	2cc
.	.	4f	.
.	.	2g	2b-y
.	.	[2a	[2cc
=84	=84	=84	=84
1F	0r	4a]	2cc]
.	.	4g	.
.	.	1f	4b-y
.	.	.	4a
2G	.	.	1b-y
2G	.	2e	.
=85	=85	=85	=85
2F	1r	[0f	1a
1F	.	.	.
.	1c	.	2r
2F	.	.	2a
=86	=86	=86	=86
2D	2d	0f]	2a
2BB-y	2d	.	2b-y
1F	2c	.	1a
.	[2c	.	.
=87	=87	=87	=87
1C	2c]	2r	2r
.	2c	2e	2g
1r	2A	2e	2a
.	2F	2f	2a
=88	=88	=88	=88
0r	2.c	1e	2g
.	.	.	1g
.	8B-yL	.	.
.	8AJ	.	.
.	2B-y	1r	.
.	[2c	.	2g
=89	=89	=89	=89
0r	2c]	0r	2e
.	4B-y	.	2c
.	4A	.	.
.	2G	.	2.g
.	2c	.	.
.	.	.	8fL
.	.	.	8eJ
=90	=90	=90	=90
0r	2d	0r	2f
.	2.e	.	1g
.	4d	.	.
.	[2c	.	4f
.	.	.	4e
=91	=91	=91	=91
0r	2c]	0r	2d
.	2B-y	.	2g
.	[1c	.	2g
.	.	.	[2a
=92	=92	=92	=92
1F	2c]	0r	4a]
.	.	.	4g
.	1d	.	1f
2G	.	.	.
2G	4c	.	2e
.	4B-y	.	.
=93	=93	=93	=93
2F	1A	1r	[0f
1F	.	.	.
.	2r	1c	.
2F	2A	.	.
=94	=94	=94	=94
2D	2A	2d	0f]
2BB-y	2B-y	2d	.
2.F	1A	2c	.
.	.	[2c	.
8EL	.	.	.
8DJ	.	.	.
=95	=95	=95	=95
2E	0r	2c]	0r
1F	.	2c	.
.	.	2A	.
4E	.	2F	.
4D	.	.	.
=96	=96	=96	=96
2C	0r	2.c	0r
2F	.	.	.
.	.	8B-yL	.
.	.	8AJ	.
2G	.	2B-y	.
[2A	.	[2c	.
=97	=97	=97	=97
4A]	0r	2c]	1r
4G	.	.	.
1F	.	4B-y	.
.	.	4A	.
.	.	2G	1g
2E	.	[2c	.
=98	=98	=98	=98
1F	0c	2c]	2a
.	.	2f	2a
1C	.	2e	1g
.	.	[2c	.
=99	=99	=99	=99
2G	2d	2c]	2r
2G	2d	2B-y	1g
1C	1c	4c	.
.	.	4d	.
.	.	4e	2g
.	.	4f	.
=100	=100	=100	=100
1.C	2r	2g	2e
.	1c	1e	2c
.	.	.	2.g
2C	2c	2e	.
.	.	.	8fL
.	.	.	8eJ
=101	=101	=101	=101
2D	2A	2d	2f
2GG	2B-y	2d	1g
4C	1c	2e	.
4D	.	.	.
4E	.	[2g	4f
4F	.	.	4e
=102	=102	=102	=102
2G	2B-y	4g]	2d
.	.	4f	.
1C	2.c	4e	2g
.	.	4d	.
.	.	2e	2g
.	4B-y	.	.
[2F	4A	[2c	[2a
.	4G	.	.
=103	=103	=103	=103
2F]	2A	2c]	4a]
.	.	.	4g
2BB-y	2B-y	2d	1f
1C	1G	1c	.
.	.	.	2e
=104	=104	=104	=104
00FFl	00Fl	00cl	00fl
==	==	==	==
*-	*-	*-	*-
!!!system-decoration: [*]
!!!RDF**kern: i = editorial accidental
!!!RDF**kern: l = terminal long
!!!ENC: Benjamin Ory
!!!END: 2021/11/16
!!!EED: Benjamin Ory
!!!EEV: 2021/11/16
!!!YEC: Copyright 2021 Benjamin Ory, All Rights Reserved
!!!ONB: Translated from MusicXML on 2021/11/16
